svgs/mplayer.svg

<svg width="192" height="192" viewBox="0 0 192 192" fill="none" xmlns="http://www.w3.org/2000/svg">
<path d="M130.727 126.814L170 87.6283V166L130.727 126.814Z" stroke="black" stroke-width="12" stroke-linejoin="round"/>
<path d="M82 86.6749L22 26V147.35L82 86.6749Z" stroke="black" stroke-width="12" stroke-linejoin="round"/>
<path d="M72.9772 156.384L160.165 68.8926L160.182 37.413L144.452 53.1251L57.2645 140.617L72.9772 156.384Z" stroke="black" stroke-width="12" stroke-linejoin="round"/>
</svg>

<svg xmlns="http://www.w3.org/2000/svg" width="192" height="192" fill="none" viewBox="0 0 192 192"><path stroke="#000" stroke-linejoin="round" stroke-width="12" d="M130.727 126.814 170 87.628V166l-39.273-39.186ZM82 86.675 22 26v121.35l60-60.675Zm-9.023 69.709 87.188-87.491.017-31.48-15.73 15.712-87.188 87.492 15.713 15.767Z"/></svg>
